Sources/FrostedUI/Resources/Icons.xcassets/illuminati20.imageset/illuminati-20.svg

<svg width="20" height="20" viewBox="0 0 20 20" fill="none" xmlns="http://www.w3.org/2000/svg" data-fui-icon="true">
  <path
    d="M8.276 2.24219C9.04944 0.928339 10.9499 0.928237 11.7233 2.24219L19.5377 15.5273C20.3219 16.8606 19.3608 18.5409 17.8141 18.541H2.18518C0.638375 18.541 -0.322658 16.8606 0.461548 15.5273L8.276 2.24219ZM16.0787 12.6064C15.7324 13.0828 15.231 13.6825 14.5709 14.2441C13.4952 15.1593 11.9673 15.9999 9.99963 16C8.03187 16 6.50404 15.1594 5.42834 14.2441C4.76811 13.6824 4.26595 13.0829 3.91956 12.6064L1.75452 16.2881C1.55865 16.6214 1.79855 17.041 2.18518 17.041H17.8141C18.2006 17.0409 18.4406 16.6213 18.2448 16.2881L16.0787 12.6064ZM13.1901 9.13281C13.2285 9.33269 13.2496 9.53891 13.2496 9.75C13.2496 11.5449 11.7945 12.9999 9.99963 13C8.20471 13 6.74963 11.5449 6.74963 9.75C6.74964 9.53902 6.76885 9.33259 6.80725 9.13281C6.66753 9.23966 6.53433 9.35119 6.40686 9.46484C5.64282 10.1461 5.12774 10.8989 4.86682 11.3291C5.12925 11.7413 5.64099 12.4557 6.40002 13.1016C7.29058 13.8593 8.48682 14.5 9.99963 14.5C11.5124 14.4999 12.7087 13.8592 13.5992 13.1016C14.358 12.4559 14.869 11.7414 15.1315 11.3291C14.8705 10.8988 14.3562 10.1459 13.5924 9.46484C13.4646 9.35087 13.3302 9.23994 13.1901 9.13281ZM9.99963 8C9.03315 8 8.24965 8.78352 8.24963 9.75C8.24963 10.7165 9.03314 11.5 9.99963 11.5C10.9661 11.4999 11.7496 10.7165 11.7496 9.75C11.7496 8.78356 10.9661 8.00007 9.99963 8ZM10.4303 3.00293C10.2369 2.67476 9.76241 2.67487 9.56897 3.00293L7.10999 7.18262C7.8859 6.798 8.7868 6.5341 9.81116 6.50488C9.87348 6.50132 9.93642 6.5 9.99963 6.5L10.1666 6.50391C10.1735 6.50425 10.1803 6.50449 10.1871 6.50488C11.2115 6.534 12.1123 6.79806 12.8883 7.18262L10.4303 3.00293Z"
    fill="currentColor"
  />
</svg>

<svg xmlns="http://www.w3.org/2000/svg" width="20" height="20" fill="none" data-fui-icon="true" viewBox="0 0 20 20"><path fill="currentColor" d="M8.276 2.242c.773-1.314 2.674-1.314 3.447 0l7.815 13.285c.784 1.334-.177 3.014-1.724 3.014H2.185c-1.547 0-2.508-1.68-1.723-3.014zm7.803 10.364a9.5 9.5 0 0 1-1.508 1.638C13.495 15.16 11.967 16 10 16c-1.968 0-3.496-.84-4.572-1.756a9.5 9.5 0 0 1-1.508-1.638l-2.165 3.682a.5.5 0 0 0 .43.753h15.63a.5.5 0 0 0 .43-.753zM13.19 9.133q.06.3.06.617a3.25 3.25 0 1 1-6.443-.617 7 7 0 0 0-.4.332 8.4 8.4 0 0 0-1.54 1.864A8 8 0 0 0 6.4 13.102c.89.757 2.087 1.398 3.6 1.398s2.709-.64 3.6-1.398a8 8 0 0 0 1.532-1.773 8.4 8.4 0 0 0-1.54-1.864 7 7 0 0 0-.402-.332M10 8a1.75 1.75 0 1 0 0 3.5A1.75 1.75 0 0 0 10 8m.43-4.997a.5.5 0 0 0-.861 0L7.11 7.183A6.45 6.45 0 0 1 10 6.5l.167.004h.02a6.45 6.45 0 0 1 2.701.679z"/></svg>
